T: Have A Drink With Me
M: 6/8
L: 1/8
K: Emin
BAG E2 D | EGD EGA | BAG E2 D | EAG ABc |BAG E2 D | EGD EGA | BAG E2 D |1 EGF G3 :|2 EGF G2 D ||GBd e2 d | ege B2 A | GBd edB | cea a2a |bag age | ged e/f/ge | dBG ABc |1 BGF G2D :|2 BGF G dc ||
